annanekrasova/img/titles/bakery.svg

<?xml version="1.0" encoding="UTF-8"?> <svg xmlns="http://www.w3.org/2000/svg" width="199" height="199" viewBox="0 0 199 199" fill="none"> <path d="M101.827 18.241L107.344 18.9889C111.411 19.5402 114.101 18.815 114.559 15.4379C114.965 12.4413 113.085 11.1208 110.523 10.7251L110.601 10.1543C112.353 10.2707 114.106 9.49108 114.434 7.06527C114.883 3.75951 112.638 2.63173 108.547 2.0772L104.1 1.47432L101.827 18.241ZM105.073 8.94478L105.824 3.40346L108.393 3.75165C111.128 4.12241 112.794 4.51779 112.442 7.11008C112.12 9.48832 110.377 9.66372 107.642 9.29297L105.073 8.94478ZM104.003 16.8406L104.847 10.6096L108.486 11.1028C111.34 11.4897 112.986 12.391 112.654 14.8405C112.296 17.4804 110.495 17.7207 107.641 17.3338L104.003 16.8406Z" fill="#B12B00"></path> <path d="M133.68 26.3266L135.468 27.0899L137.102 9.38964L133.393 7.80645L121.717 21.2189L123.527 21.9916L128.07 16.7289L134.317 19.3959L133.68 26.3266ZM129.238 15.4006L134.766 8.99262L135.274 9.20937L134.491 17.6435L129.238 15.4006Z" fill="#B12B00"></path> <path d="M164.758 26.8959L162.565 25.1034L151.245 25.1477L155.802 19.5737L154.279 18.328L143.569 31.427L145.092 32.6727L149.65 27.0986L151.855 38.2023L154.048 39.9949L151.421 26.9038L164.758 26.8959Z" fill="#B12B00"></path> <path d="M160.269 46.1891L166.465 54.6514L167.82 53.6589L162.787 46.7845L167.589 43.2684L171.914 49.1746L173.269 48.1821L168.945 42.2759L173.728 38.774L178.761 45.6484L180.117 44.656L173.921 36.1936L160.269 46.1891Z" fill="#B12B00"></path> <path d="M171.14 61.8137L171.866 63.6428L178.179 61.137L181.314 69.0337L175.001 71.5395L175.727 73.3686L181.638 71.0222C182.464 70.6946 182.679 70.196 182.325 69.3037L181.581 67.4299L182.116 67.2174C183.079 68.7977 184.615 69.6084 186.979 68.6698C190.504 67.2708 190.426 64.5386 188.939 60.7911L186.867 55.5713L171.14 61.8137ZM179.741 60.5172L186.031 58.0202L187.377 61.4109C188.44 64.0877 188.841 65.8135 185.941 66.9646C183.063 68.1068 182.149 66.5847 181.087 63.9078L179.741 60.5172Z" fill="#B12B00"></path> <path d="M196.427 89.6682L187.633 86.0368L186.276 86.212L186.206 85.6646L187.562 85.4893L195.145 79.7427L194.874 77.6481L185.141 85.1004L178.881 85.909L179.13 87.8369L185.39 87.0284L196.697 91.7628L196.427 89.6682Z" fill="#B12B00"></path> <path d="M183.261 115.881L182.811 117.424C184.193 117.827 184.258 118.547 184.077 119.169C183.586 120.851 181.299 121.834 180.654 124.045C180.278 125.336 180.737 127.019 183.064 127.698L183.514 126.155C182.132 125.751 182.043 125.026 182.225 124.403C182.709 122.745 185.002 121.739 185.647 119.527C186.017 118.259 185.588 116.559 183.261 115.881Z" fill="#B12B00"></path> <path d="M166.559 145L163 149.282C160.377 152.438 159.566 155.103 162.187 157.281C164.513 159.214 166.629 158.321 168.322 156.358L168.765 156.726C167.738 158.15 167.47 160.05 169.352 161.614C171.918 163.747 174.064 162.441 176.703 159.266L179.572 155.815L166.559 145ZM172.721 152.68L177.022 156.255L175.365 158.248C173.601 160.37 172.382 161.574 170.37 159.901C168.525 158.367 169.3 156.796 171.064 154.674L172.721 152.68ZM166.593 147.587L171.429 151.606L169.082 154.43C167.241 156.645 165.604 157.563 163.703 155.983C161.655 154.28 162.405 152.626 164.246 150.411L166.593 147.587Z" fill="#B12B00"></path> <path d="M142.809 167.724L141.217 168.839L155.385 179.574L158.687 177.262L153.465 160.263L151.853 161.392L153.922 168.029L148.358 171.925L142.809 167.724ZM154.434 169.722L156.955 177.801L156.503 178.117L149.755 172.998L154.434 169.722Z" fill="#B12B00"></path> <path d="M125.881 193.822L128.562 192.909L134.512 183.278L136.832 190.094L138.695 189.46L133.242 173.442L131.379 174.077L133.7 180.892L123.109 176.892L120.429 177.805L132.928 182.499L125.881 193.822Z" fill="#B12B00"></path> <path d="M111.879 179.797L101.419 180.56L101.541 182.235L110.038 181.616L110.471 187.552L103.17 188.084L103.293 189.76L110.593 189.228L111.024 195.14L102.527 195.759L102.649 197.435L113.109 196.672L111.879 179.797Z" fill="#B12B00"></path> <path d="M92.861 180.729L90.9245 180.378L89.7147 187.062L81.3546 185.548L82.5643 178.865L80.6278 178.514L79.495 184.773C79.3368 185.647 79.6463 186.093 80.5909 186.264L82.5747 186.623L82.4721 187.19C80.6217 187.172 79.1219 188.047 78.6688 190.55C77.9933 194.281 80.3536 195.66 84.3211 196.378L89.8473 197.378L92.861 180.729ZM89.4155 188.715L88.21 195.375L84.6203 194.725C81.7864 194.212 80.1094 193.64 80.6651 190.57C81.2166 187.523 82.9919 187.552 85.8258 188.065L89.4155 188.715Z" fill="#B12B00"></path> <path d="M55.7671 187.444L63.5197 181.93L64.0929 180.688L64.5941 180.919L64.0209 182.161L64.854 191.638L66.7716 192.523L65.6384 180.317L68.2835 174.586L66.5185 173.771L63.8734 179.502L53.8495 186.559L55.7671 187.444Z" fill="#B12B00"></path> <path d="M40.4659 162.52L39.3947 161.32C38.3208 162.28 37.6762 161.954 37.2445 161.471C36.0773 160.165 36.4539 157.704 34.9189 155.986C34.0235 154.984 32.3521 154.482 30.5443 156.096L31.6156 157.296C32.6895 156.336 33.352 156.646 33.7837 157.129C34.9349 158.418 34.5743 160.896 36.1093 162.614C36.9887 163.598 38.6582 164.134 40.4659 162.52Z" fill="#B12B00"></path> <path d="M24.7289 132.823L22.9787 127.537C21.6887 123.641 19.8563 121.543 16.621 122.614C13.7503 123.564 13.389 125.833 14.1582 128.309L13.6114 128.49C12.9468 126.864 11.4769 125.632 9.15297 126.401C5.98605 127.45 5.95824 129.962 7.25577 133.881L8.66646 138.141L24.7289 132.823ZM14.9513 133.987L9.64272 135.745L8.82799 133.284C7.96046 130.664 7.58434 128.994 10.0677 128.171C12.3461 127.417 13.269 128.906 14.1366 131.526L14.9513 133.987ZM22.5154 131.483L16.5461 133.459L15.3919 129.973C14.4867 127.239 14.5739 125.365 16.9206 124.588C19.4496 123.75 20.456 125.263 21.3612 127.997L22.5154 131.483Z" fill="#B12B00"></path> <path d="M17.9866 100.639L17.8896 98.6979L1.26274 104.984L1.46408 109.011L18.6362 113.631L18.538 111.666L11.8168 109.887L11.4776 103.104L17.9866 100.639ZM10.1113 109.42L1.9291 107.258L1.90154 106.706L9.82604 103.715L10.1113 109.42Z" fill="#B12B00"></path> <path d="M4.79563 72.5275L4.15424 75.2859L9.18861 85.4256L2.1757 83.7949L1.72998 85.7118L18.2103 89.5438L18.656 87.627L11.6431 85.9963L20.6346 79.118L21.276 76.3596L10.6868 84.4926L4.79563 72.5275Z" fill="#B12B00"></path> <path d="M24.1091 68.0306L28.9941 58.7497L27.5074 57.9672L23.5391 65.5066L18.2721 62.7344L21.6815 56.2569L20.1949 55.4744L16.7855 61.9519L11.5397 59.1908L15.5081 51.6514L14.0215 50.8689L9.13647 60.1498L24.1091 68.0306Z" fill="#B12B00"></path> <path d="M33.377 51.4114L34.7008 49.9551L29.6748 45.3866L35.3894 39.0997L40.4154 43.6682L41.7391 42.2119L37.0328 37.934C36.3757 37.3367 35.8333 37.3626 35.1876 38.073L33.8315 39.5648L33.4053 39.1774C34.4013 37.6178 34.4545 35.8823 32.572 34.1711C29.7659 31.6205 27.346 32.8912 24.634 35.8748L20.8565 40.0306L33.377 51.4114ZM28.4316 44.2566L23.4234 39.7043L25.8772 37.0048C27.8143 34.8737 29.1881 33.7548 31.4969 35.8534C33.7879 37.9358 32.8225 39.426 30.8854 41.5572L28.4316 44.2566Z" fill="#B12B00"></path> <path d="M47.1986 16.473L47.8277 25.9662L48.5846 27.1057L48.1248 27.4111L47.3679 26.2716L38.8618 22.0099L37.1025 23.1784L48.0894 28.6159L51.5815 33.8739L53.2008 32.7984L49.7088 27.5404L48.958 15.3046L47.1986 16.473Z" fill="#B12B00"></path> <path d="M76.5704 16.5864L78.1552 16.3142C77.9114 14.895 78.5291 14.5211 79.1677 14.4114C80.8945 14.1149 82.7805 15.7391 85.0513 15.3492C86.3759 15.1218 87.6881 13.9711 87.2779 11.582L85.6931 11.8542C85.9368 13.2734 85.3232 13.671 84.6846 13.7807C82.9815 14.0731 81.0717 12.4529 78.801 12.8429C77.5 13.0663 76.1601 14.1973 76.5704 16.5864Z" fill="#B12B00"></path> </svg>

<svg xmlns="http://www.w3.org/2000/svg" width="199" height="199" fill="none"><path d="M101.827 18.241l5.517.748c4.067.551 6.757-.174 7.215-3.551.406-2.997-1.474-4.317-4.036-4.713l.078-.57c1.752.116 3.505-.664 3.833-3.09.449-3.305-1.796-4.433-5.887-4.988l-4.447-.603-2.273 16.767zm3.246-9.296l.751-5.542 2.569.349c2.735.37 4.401.766 4.049 3.358-.322 2.378-2.065 2.554-4.8 2.183l-2.569-.348zm-1.07 7.896l.844-6.231 3.639.493c2.854.387 4.5 1.288 4.168 3.738-.358 2.64-2.159 2.88-5.013 2.493l-3.638-.493zm29.677 9.486l1.788.763 1.634-17.7-3.709-1.584-11.676 13.413 1.81.773 4.543-5.263 6.247 2.667-.637 6.93zM129.238 15.4l5.528-6.408.508.216-.783 8.434-5.253-2.242zm35.52 11.496l-2.193-1.793-11.32.045 4.557-5.574-1.523-1.246-10.71 13.099 1.523 1.246 4.558-5.574 2.205 11.103 2.193 1.793-2.627-13.091 13.337-.008zm-4.489 19.294l6.196 8.461 1.355-.992-5.033-6.874 4.802-3.517 4.325 5.907 1.355-.993-4.324-5.906 4.783-3.502 5.033 6.874 1.356-.992-6.196-8.462-13.652 9.995zm10.871 15.624l.726 1.829 6.313-2.506 3.135 7.897-6.313 2.505.726 1.83 5.911-2.347c.826-.327 1.041-.826.687-1.718l-.744-1.874.535-.213c.963 1.58 2.499 2.391 4.863 1.453 3.525-1.4 3.447-4.131 1.96-7.879l-2.072-5.22-15.727 6.243zm8.601-1.297l6.29-2.497 1.346 3.39c1.063 2.678 1.464 4.404-1.436 5.555-2.878 1.142-3.792-.38-4.854-3.057l-1.346-3.39zm16.686 29.151l-8.794-3.631-1.357.175-.07-.547 1.356-.176 7.583-5.746-.271-2.095-9.733 7.452-6.26.809.249 1.928 6.26-.809 11.307 4.735-.27-2.095zm-13.166 26.213l-.45 1.543c1.382.403 1.447 1.123 1.266 1.745-.491 1.682-2.778 2.665-3.423 4.876-.376 1.291.083 2.974 2.41 3.653l.45-1.543c-1.382-.404-1.471-1.129-1.289-1.752.484-1.658 2.777-2.664 3.422-4.876.37-1.268-.059-2.968-2.386-3.646zM166.559 145L163 149.282c-2.623 3.156-3.434 5.821-.813 7.999 2.326 1.933 4.442 1.04 6.135-.923l.443.368c-1.027 1.424-1.295 3.324.587 4.888 2.566 2.133 4.712.827 7.351-2.348l2.869-3.451L166.559 145zm6.162 7.68l4.301 3.575-1.657 1.993c-1.764 2.122-2.983 3.326-4.995 1.653-1.845-1.534-1.07-3.105.694-5.227l1.657-1.994zm-6.128-5.093l4.836 4.019-2.347 2.824c-1.841 2.215-3.478 3.133-5.379 1.553-2.048-1.703-1.298-3.357.543-5.572l2.347-2.824zm-23.784 20.137l-1.592 1.115 14.168 10.735 3.302-2.312-5.222-16.999-1.612 1.129 2.069 6.637-5.564 3.896-5.549-4.201zm11.625 1.998l2.521 8.079-.452.316-6.748-5.119 4.679-3.276zm-28.553 24.1l2.681-.913 5.95-9.631 2.32 6.816 1.863-.634-5.453-16.018-1.863.635 2.321 6.815-10.591-4-2.68.913 12.499 4.694-7.047 11.323zm-14.002-14.025l-10.46.763.122 1.675 8.497-.619.433 5.936-7.301.532.123 1.676 7.3-.532.431 5.912-8.497.619.122 1.676 10.46-.763-1.23-16.875zm-19.018.932l-1.937-.351-1.21 6.684-8.36-1.514 1.21-6.683-1.936-.351-1.133 6.259c-.158.874.151 1.32 1.096 1.491l1.984.359-.103.567c-1.85-.018-3.35.857-3.803 3.36-.676 3.731 1.685 5.11 5.652 5.828l5.526 1 3.014-16.649zm-3.446 7.986l-1.205 6.66-3.59-.65c-2.834-.513-4.51-1.085-3.955-4.155.552-3.047 2.327-3.018 5.16-2.505l3.59.65zm-33.648-1.271l7.753-5.514.573-1.242.501.231-.573 1.242.833 9.477 1.918.885-1.134-12.206 2.645-5.731-1.764-.815-2.646 5.731-10.023 7.057 1.917.885zM40.466 162.52l-1.071-1.2c-1.074.96-1.719.634-2.15.151-1.168-1.306-.791-3.767-2.326-5.485-.895-1.002-2.567-1.504-4.375.11l1.072 1.2c1.074-.96 1.736-.65 2.168-.167 1.15 1.289.79 3.767 2.325 5.485.88.984 2.55 1.52 4.357-.094zm-15.737-29.697l-1.75-5.286c-1.29-3.896-3.123-5.994-6.358-4.923-2.87.95-3.232 3.219-2.463 5.695l-.547.181c-.664-1.626-2.134-2.858-4.458-2.089-3.167 1.049-3.195 3.561-1.897 7.48l1.41 4.26 16.063-5.318zm-9.778 1.164l-5.308 1.758-.815-2.461c-.868-2.62-1.244-4.29 1.24-5.113 2.278-.754 3.201.735 4.069 3.355l.814 2.461zm7.564-2.504l-5.969 1.976-1.154-3.486c-.905-2.734-.818-4.608 1.529-5.385 2.529-.838 3.535.675 4.44 3.409l1.154 3.486zm-4.528-30.844l-.097-1.941-16.627 6.286.201 4.027 17.172 4.62-.098-1.965-6.721-1.779-.34-6.783 6.51-2.465zm-7.876 8.781l-8.182-2.162-.027-.552 7.924-2.991.285 5.705zM4.796 72.528l-.642 2.758 5.035 10.14-7.013-1.631-.446 1.917 16.48 3.832.446-1.917-7.013-1.63 8.992-6.879.641-2.758-10.59 8.133-5.89-11.965zM24.11 68.03l4.884-9.28-1.487-.783-3.968 7.54-5.267-2.773 3.41-6.477-1.487-.783-3.41 6.478-5.245-2.761 3.968-7.54-1.486-.782-4.886 9.28 14.973 7.882zm9.267-16.619l1.324-1.456-5.026-4.568 5.714-6.287 5.026 4.568 1.324-1.456-4.706-4.278c-.657-.597-1.2-.571-1.845.139l-1.357 1.492-.426-.388c.996-1.56 1.05-3.295-.833-5.006-2.806-2.55-5.226-1.28-7.938 1.704l-3.777 4.156 12.52 11.38zm-4.945-7.154l-5.009-4.553 2.454-2.7c1.937-2.13 3.311-3.25 5.62-1.15 2.29 2.082 1.325 3.572-.612 5.703l-2.453 2.7zm18.767-27.784l.629 9.493.757 1.14-.46.305-.757-1.14-8.506-4.261-1.76 1.168 10.987 5.438 3.492 5.258 1.62-1.076-3.492-5.258-.751-12.235-1.76 1.168zm29.371.113l1.585-.272c-.244-1.419.374-1.793 1.013-1.903 1.726-.296 3.612 1.328 5.883.938 1.325-.227 2.637-1.378 2.227-3.767l-1.585.272c.244 1.42-.37 1.817-1.008 1.927-1.704.292-3.613-1.328-5.884-.938-1.301.223-2.64 1.354-2.23 3.743z" fill="#B12B00"/></svg>
